X:69
T:Salt River Road
C:c.2012
C:http://edyother.com
M:6/8
R:jig
K:Dmix
A,DA cBA | GFD EFG | A,DA cBA | GFE D3 |
A,DA cBA | GFD EFG | cB/c/c dcB | AGE D3 :|
|: dcd ecA | dcd ecA | cBc dcB | GBc GBc |
[1 dcd ecA | dcd ecA | cBc dcB | AGE D3 :|
[2 dcd ecA | gfg agf | def gde | ceB A3 |]

%%newpage
%%scale .75
%%staffsep 35

